src/22/actions/stock_xfburn-audio-cd.svg

<svg xmlns="http://www.w3.org/2000/svg" width="22" height="22"><defs><style id="current-color-scheme" type="text/css"></style></defs><path d="M11 3a8 8 0 0 0-8 8 8 8 0 0 0 8 8 8 8 0 0 0 8-8 8 8 0 0 0-8-8zM9 6h6v8a2 2 0 0 1-2 2 2 2 0 0 1-2-2 2 2 0 0 1 2-2 2 2 0 0 1 1 .27V8h-4v6a2 2 0 0 1-2 2 2 2 0 0 1-2-2 2 2 0 0 1 2-2 2 2 0 0 1 1 .27V8z" fill="currentColor" color="#5d656b"/></svg>

<svg xmlns="http://www.w3.org/2000/svg" width="22" height="22" version="1.1" viewBox="0 0 22 22">
 <defs>
  <style id="current-color-scheme" type="text/css">
   .ColorScheme-Text { color:#5d656b; } .ColorScheme-Highlight { color:#5294e2; }
  </style>
 </defs>
 <path style="fill:currentColor" class="ColorScheme-Text" d="M 11,3 A 8,8 0 0 0 2.9999999,11 8,8 0 0 0 11,19 8,8 0 0 0 19,11 8,8 0 0 0 11,3 Z M 9,5.9999999 h 6 V 14 a 2,2 0 0 1 -2,2 2,2 0 0 1 -2,-2 2,2 0 0 1 2,-2 2,2 0 0 1 1,0.269531 V 8.0000001 H 10 V 14 A 2,2 0 0 1 8,16 2,2 0 0 1 6,14 2,2 0 0 1 8,12 2,2 0 0 1 9,12.269531 V 8.0000001 Z"/>
</svg>
